X: 41345
T: Turniskey Lasses
R: reel
M: 4/4
K: Adorian
|B2 {Bc}BAG2AG|FADA FADA|B2 {c}BA GAB^c|dBA=c BG [EG,]2|
B2 {c}BAG2AG|FADA FADA|B2 {c}BA GAB^c|dBA=c BG [EG,]2:|
e2ge bege|defg bfdf|e2ge bege|dBAc BG E2|
e2ge bege|defg bfdf|{a}gfed egfe|dBAc BG E2:|

